X:21
T:The Hobbit's Hut
C:Corwin Zekley
L:1/8
M:6/8
K:Amin
"Am" e2 a age |"D" ^fed"Em" e2 B |"Am" ABc edc |"G" BAG Bcd |$"Am" e2 a age |"D" ^fed"Em" e2 B | %6
"Am" cde"G" dBG |1"Am" A3 A3 :|2"Am" A3 A2 B |:$"C" c3 cde |"G" dBG G2 ^F | G3 GAB | %12
"D" A^FD D2 E |$"Am" AcA"Em" BGE |"C" cec"G" dBG |1"Am" Ace g^fd |"Em" e3 e2 B :|2 %17
"F" cde"Em" dBG ||"Am" A3 A3 |] %19

